X: 241b
T: Where Lilies Bloom
M:2/4
L:1/8
K:D
"D"DF/A/ BA|d2dc|"G"B>A Bc|"A"BA FE|
"D"DF/A/ BA|d2dc|"G"BA B/c/d|1"D"ed d2:|2ed de|
"D"fg/f/ "A"ec|"D"de "A" cA|"G"B>A Bc|"A" BA FA|
"D"fg/f/ "A" ec|"D"de "A" cA|"G"BA B/c/d|"D"ed de|
"D"fg/f/ "A"ec|"D"de "A" cA|"G"B>A Bc|"G"B/c/B/A/ "D"FA|
"D"DF/A/ BA|d2dc|"G"BA B/c/d|"D"ed d2|]


